X: 33890
T: Red Island Tune
R: polka
M: 2/4
K: Dmajor
|:d2- de/f/|a/f/e fa/f/|ed- de|fa/f/ eg/e/|
d2- de/f/|a/f/e fa/f/|ee fe|1 dA Bc:|2 d2 FA||
|:B>c BA/F/|A/F/E FA/F/|ED- DE|FA FA|
B>c BA/F/|A/F/E FA/F/|EE FE|1 DE FA:|2 DA Bc||

